assets/sonr-icons/sonr-fill.svg

<svg xmlns="http://www.w3.org/2000/svg" width="24" height="24" fill="none"><path fill="currentColor" stroke="#000" d="m8.642 11.55 2.996-3.245a.5.5 0 0 1 .361-.166c.126 0 .259.055.362.166l.694.752 2.076-2.249-.64-.694a3.5 3.5 0 0 0-1.137-.823 3.3 3.3 0 0 0-1.355-.292c-.466 0-.926.1-1.354.292-.379.17-.889.443-1.239.821L7.951 7.67 6.513 9.222c-.351.38-.6.958-.751 1.353a4 4 0 0 0 0 2.848c.173.452.428.866.751 1.216l1.861 2.021 2.079-2.249-1.812-1.963a.6.6 0 0 1-.124-.202.7.7 0 0 1 0-.498.6.6 0 0 1 .124-.201zm2.994 4.146-.694-.752-2.076 2.248.64.693c.323.352.709.633 1.139.825a3.3 3.3 0 0 0 1.356.29 3.3 3.3 0 0 0 1.354-.287 3.5 3.5 0 0 0 1.139-.823l2.997-3.245a3.9 3.9 0 0 0 1.01-2.64c0-.983-.359-1.933-1.01-2.64l-.001-.001-1.866-2.021-2.076 2.249 1.809 1.957a.67.67 0 0 1 .169.451.66.66 0 0 1-.169.451l-2.995 3.245a.5.5 0 0 1-.361.167.5.5 0 0 1-.362-.167zM2.5 12c0-5.233 4.266-9.5 9.5-9.5s9.5 4.266 9.5 9.5-4.266 9.5-9.5 9.5-9.5-4.266-9.5-9.5Zm8.733-2.441-1.539 1.667a1.15 1.15 0 0 0 0 1.545l1.539 1.667a1.035 1.035 0 0 0 1.535 0l1.539-1.667a1.15 1.15 0 0 0 0-1.545l-1.539-1.667a1.035 1.035 0 0 0-1.535 0Z"/></svg>

<svg xmlns="http://www.w3.org/2000/svg" width="24" height="24" fill="none" viewBox="0 0 24 24"><path fill="#000" stroke="#000" stroke-width="1" d="M8.642 11.55L11.638 8.305C11.742 8.193 11.873 8.139 11.999 8.139C12.125 8.139 12.258 8.194 12.361 8.305L13.055 9.057L15.131 6.808L14.491 6.114C14.168 5.764 13.781 5.483 13.354 5.291C12.927 5.099 12.465 4.999 11.999 4.999C11.533 4.999 11.073 5.099 10.645 5.291C10.266 5.461 9.756 5.734 9.406 6.112L7.951 7.67L6.513 9.222C6.162 9.602 5.913 10.18 5.762 10.575C5.589 11.027 5.5 11.511 5.5 11.999C5.5 12.487 5.588 12.97 5.762 13.423C5.935 13.875 6.19 14.289 6.513 14.639L8.374 16.66L10.453 14.411L8.641 12.448C8.589 12.392 8.547 12.324 8.517 12.246C8.487 12.168 8.471 12.083 8.471 11.997C8.471 11.911 8.487 11.826 8.517 11.748C8.547 11.67 8.59 11.602 8.641 11.547L8.642 11.55ZM11.636 15.696L10.942 14.944L8.866 17.192L9.506 17.885C9.829 18.237 10.215 18.518 10.645 18.71C11.075 18.902 11.534 19.001 12.001 19C12.467 19.001 12.927 18.904 13.355 18.713C13.783 18.522 14.17 18.241 14.494 17.89L17.491 14.645C18.142 13.938 18.501 12.988 18.501 12.005C18.501 11.022 18.142 10.072 17.491 9.365L17.49 9.364L15.624 7.343L13.548 9.592L15.357 11.549C15.461 11.662 15.526 11.823 15.526 12C15.526 12.177 15.462 12.337 15.357 12.451L12.362 15.696C12.258 15.808 12.127 15.863 12.001 15.863C11.875 15.863 11.742 15.808 11.639 15.696H11.636ZM2.5 12C2.5 6.767 6.766 2.5 12 2.5C17.234 2.5 21.5 6.766 21.5 12C21.5 17.234 17.234 21.5 12 21.5C6.766 21.5 2.5 17.234 2.5 12ZM11.233 9.559L9.694 11.226C9.297 11.657 9.297 12.341 9.694 12.771L11.233 14.438C11.652 14.892 12.349 14.892 12.768 14.438L14.307 12.771C14.705 12.34 14.705 11.656 14.307 11.226L12.768 9.559C12.349 9.105 11.652 9.105 11.233 9.559Z"/></svg>
